icon/pk/ecg.svg

<svg width="48" height="48" fill="none" xmlns="http://www.w3.org/2000/svg"><path d="M4 22h4l4-11 5 26 6-17 4 8 7-13 4 14 2-7h4" stroke="#000" stroke-width="4" stroke-linecap="round" stroke-linejoin="round"/></svg>

<svg viewBox="0 0 48 48" fill="none" xmlns="http://www.w3.org/2000/svg" height="1em" width="1em">
  <path d="M4 22H8L12 11L17 37L23 20L27 28L34 15L38 29L40 22H44" stroke="black" stroke-width="4" stroke-linecap="round" stroke-linejoin="round"/>
</svg>
